packages/core/src/svgs/tokens/mono/LA.svg

<svg width="24" height="24" viewBox="0 0 24 24" fill="none" xmlns="http://www.w3.org/2000/svg">
<path d="M11.777 5.23535L6.98059 15.8235H10.5465L15.3864 5.23535H19.8771L22 18.7648H18.0806L17.8559 15.8235H14.1618L13.16 18.7648H2L8.06175 5.23535H11.777ZM14.8758 14.0589H17.5447L17.0612 7.58829L14.8758 14.0589Z" fill="white"/>
</svg>

<svg xmlns="http://www.w3.org/2000/svg" width="24" height="24" fill="none" viewBox="0 0 24 24">
    <path fill="#fff" d="M11.777 5.235 6.981 15.824h3.566l4.84-10.589h4.49L22 18.765h-3.92l-.224-2.942h-3.694l-1.002 2.942H2l6.062-13.53zm3.099 8.824h2.669l-.484-6.47z"/>
</svg>
